X: 2
T: Cahir's Kitchen
R: reel
M: 4/4
L: 1/8
K: Emin
E2GB E2GB|A2FA DE3(FED|E2GB E2GA|B_BBc BAGF|E2GB E2GB|A2FA DE3(FED|(3EFG (3FGA (3GAB (3ABc|BAFG E4||eBgf eBfe|dAFA DE3(FED|eBgf eBBA|B_BBc BAGF|eBgf eBfe|dAFA DE3(FED|(3EFG (3FGA (3GAB (3ABc|BAFG E4||


Tune 1090	Setting 25907

